src/svg/uf152-caret-square-o-right,toggle-right.svg

<!-- Generated by IcoMoon.io -->
<svg version="1.1" xmlns="http://www.w3.org/2000/svg" width="27" height="32" viewBox="0 0 27 32">
<path d="M19.429 16c0 0.375-0.179 0.714-0.482 0.929l-8 5.714c-0.339 0.25-0.804 0.286-1.179 0.089-0.393-0.196-0.625-0.589-0.625-1.018v-11.429c0-0.429 0.232-0.821 0.625-1.018 0.375-0.196 0.839-0.161 1.179 0.089l8 5.714c0.304 0.214 0.482 0.554 0.482 0.929zM22.857 24.571v-17.143c0-0.321-0.25-0.571-0.571-0.571h-17.143c-0.321 0-0.571 0.25-0.571 0.571v17.143c0 0.321 0.25 0.571 0.571 0.571h17.143c0.321 0 0.571-0.25 0.571-0.571zM27.429 7.429v17.143c0 2.839-2.304 5.143-5.143 5.143h-17.143c-2.839 0-5.143-2.304-5.143-5.143v-17.143c0-2.839 2.304-5.143 5.143-5.143h17.143c2.839 0 5.143 2.304 5.143 5.143z"></path>
</svg>

<svg xmlns="http://www.w3.org/2000/svg" width="27" height="32"><path d="M19.429 16c0 .375-.179.714-.482.929l-8 5.714c-.339.25-.804.286-1.179.089a1.127 1.127 0 0 1-.625-1.018V10.285c0-.429.232-.821.625-1.018a1.125 1.125 0 0 1 1.179.089l8 5.714c.304.214.482.554.482.929zm3.428 8.571V7.428a.564.564 0 0 0-.571-.571H5.143a.564.564 0 0 0-.571.571v17.143c0 .321.25.571.571.571h17.143c.321 0 .571-.25.571-.571zm4.572-17.142v17.143a5.145 5.145 0 0 1-5.143 5.143H5.143A5.145 5.145 0 0 1 0 24.572V7.429a5.145 5.145 0 0 1 5.143-5.143h17.143a5.145 5.145 0 0 1 5.143 5.143z"/></svg>
